X:1
T:Derby -- Hornpipe
Z:Bob Puckette <bpuckette:msn.com> 2003-3-10
R:hornpipe
B:Cole's 1000 Fiddle Tunes
M:2/4
L:1/16
K:G
(ucB)|BABG cBcA|Bgfg edcB|cdef gbgd|cBAG F"4"ADG|
BABG cBcA|Bgfg edcB|cdef gdBG|BAGF G2:|
|:(uBc)|d"4"edB gfed|"0"efge agfe|dgba gfed|"4"edcB .A2(Bc)|
d"4"edB gfed|"4"edef gfga|bgec BAGF|G2G2G2:|
